X:2931
L:1/8
M:4/4
K:C
[M:9/8][K:G] Fg eS[Q:1/8=160] GAG B2 d efg | ded dBG A3 | GAG B2 d efg | fgf ed^c d3 :| 
 g2 d B2 d B2 d | g2 d B2 d cBA | g2 d B2 d B2 d | ecB cAF G3 :| d2 z e2 z f2 z | egf ed^c d3 | 
 g2 z a2 z b2 z | a2 b agf g3 :|

